dbg/src/shared/assets/icons/cloud.svg

<svg width="64" height="64" viewBox="0 0 64 64" fill="none" xmlns="http://www.w3.org/2000/svg">
<g clip-path="url(#clip0_4_1868)">
<path d="M18.6667 48C15.3394 48 12.1484 46.7357 9.79569 44.4852C7.44297 42.2348 6.12122 39.1826 6.12122 36C6.12122 32.8174 7.44297 29.7651 9.79569 27.5147C12.1484 25.2642 15.3394 24 18.6667 24C19.4525 20.4991 21.7514 17.4226 25.0576 15.4472C26.6946 14.4691 28.5297 13.7907 30.4581 13.4509C32.3864 13.1111 34.3702 13.1164 36.2963 13.4666C38.2224 13.8168 40.0529 14.505 41.6834 15.4919C43.314 16.4788 44.7126 17.7451 45.7994 19.2184C46.8862 20.6918 47.6399 22.3434 48.0174 24.0789C48.395 25.8144 48.3891 27.5998 48 29.3333H50.6667C53.142 29.3333 55.516 30.3166 57.2663 32.067C59.0167 33.8173 60 36.1913 60 38.6666C60 41.142 59.0167 43.5159 57.2663 45.2663C55.516 47.0166 53.142 48 50.6667 48H18.6667Z" stroke="white" stroke-width="3" stroke-linecap="round" stroke-linejoin="round"/>
</g>
<defs>
<clipPath id="clip0_4_1868">
<rect width="64" height="64" fill="white"/>
</clipPath>
</defs>
</svg>

<svg xmlns="http://www.w3.org/2000/svg" width="64" height="64" fill="none"><g clip-path="url(#a)"><path stroke="#fff" stroke-linecap="round" stroke-linejoin="round" stroke-width="3" d="M18.667 48c-3.328 0-6.519-1.264-8.871-3.515C7.443 42.235 6.12 39.183 6.12 36s1.322-6.235 3.675-8.485c2.352-2.25 5.543-3.515 8.87-3.515.787-3.5 3.085-6.577 6.392-8.553a15.922 15.922 0 0 1 5.4-1.996 16.595 16.595 0 0 1 5.838.016 15.903 15.903 0 0 1 5.387 2.025c1.631.987 3.03 2.253 4.116 3.726a12.758 12.758 0 0 1 2.218 4.86c.378 1.736.372 3.522-.017 5.255h2.667a9.333 9.333 0 1 1 0 18.667h-32Z"/></g><defs><clipPath id="a"><path fill="#fff" d="M0 0h64v64H0z"/></clipPath></defs></svg>
